archdroid-icon-theme/Archdroid-Brown/mimetypes/scalable/multipart-encrypted.svg

<?xml version="1.0" encoding="UTF-8" standalone="no"?>
<svg
   xmlns:dc="http://purl.org/dc/elements/1.1/"
   xmlns:cc="http://creativecommons.org/ns#"
   xmlns:rdf="http://www.w3.org/1999/02/22-rdf-syntax-ns#"
   xmlns:svg="http://www.w3.org/2000/svg"
   xmlns="http://www.w3.org/2000/svg"
   xmlns:sodipodi="http://sodipodi.sourceforge.net/DTD/sodipodi-0.dtd"
   xmlns:inkscape="http://www.inkscape.org/namespaces/inkscape"
   fill="#795548"
   width="48"
   height="48"
   viewBox="0 0 48 48"
   id="svg2"
   version="1.1"
   inkscape:version="0.91 r13725"
   sodipodi:docname="multipart-encrypted.svg">
  <metadata
     id="metadata10">
    <rdf:RDF>
      <cc:Work
         rdf:about="">
        <dc:format>image/svg+xml</dc:format>
        <dc:type
           rdf:resource="http://purl.org/dc/dcmitype/StillImage" />
        <dc:title />
      </cc:Work>
    </rdf:RDF>
  </metadata>
  <defs
     id="defs8">
    <linearGradient
       gradientTransform="scale(1.0058652,0.994169)"
       gradientUnits="userSpaceOnUse"
       id="ButtonShadow"
       y2="7.0165396"
       x2="45.447727"
       y1="92.539597"
       x1="45.447727">
      <stop
         offset="0"
         style="stop-color:#000000;stop-opacity:1"
         id="stop3750" />
      <stop
         offset="1"
         style="stop-color:#000000;stop-opacity:0.58823532"
         id="stop3752" />
    </linearGradient>
    <filter
       id="filter3174"
       color-interpolation-filters="sRGB">
      <feGaussianBlur
         stdDeviation="1.71"
         id="feGaussianBlur3176" />
    </filter>
  </defs>
  <sodipodi:namedview
     pagecolor="#ffffff"
     bordercolor="#666666"
     borderopacity="1"
     objecttolerance="10"
     gridtolerance="10"
     guidetolerance="10"
     inkscape:pageopacity="0"
     inkscape:pageshadow="2"
     inkscape:window-width="1366"
     inkscape:window-height="713"
     id="namedview6"
     showgrid="false"
     inkscape:zoom="4.9166667"
     inkscape:cx="-41.143974"
     inkscape:cy="19.256466"
     inkscape:window-x="0"
     inkscape:window-y="30"
     inkscape:window-maximized="1"
     inkscape:current-layer="svg2" />
  <path
     style=""
     d="M 10 6 C 7.79 6 6 7.79 6 10 L 6 38 C 6 40.21 7.79 42 10 42 L 38 42 C 40.21 42 42 40.21 42 38 L 42 10 C 42 7.79 40.21 6 38 6 L 10 6 z M 14.617188 10.292969 C 15.119687 10.292969 15.4425 10.518125 15.75 10.953125 C 16.0575 11.358125 16.251953 12.018828 16.251953 12.798828 C 16.251953 14.433828 15.472188 15.207031 14.617188 15.207031 C 13.732187 15.207031 12.998047 14.216719 12.998047 12.761719 C 12.998047 11.306719 13.754687 10.292969 14.617188 10.292969 z M 25.867188 10.292969 C 26.369688 10.292969 26.6925 10.518125 27 10.953125 C 27.3075 11.358125 27.501953 12.018828 27.501953 12.798828 C 27.501953 14.433828 26.722188 15.207031 25.867188 15.207031 C 24.982187 15.207031 24.248047 14.216719 24.248047 12.761719 C 24.248047 11.306719 25.004687 10.292969 25.867188 10.292969 z M 29.617188 10.292969 C 30.119688 10.292969 30.4425 10.518125 30.75 10.953125 C 31.0575 11.358125 31.251953 12.018828 31.251953 12.798828 C 31.251953 14.433828 30.472188 15.207031 29.617188 15.207031 C 28.732188 15.207031 27.998047 14.216719 27.998047 12.761719 C 27.998047 11.306719 28.754687 10.292969 29.617188 10.292969 z M 33.367188 10.292969 C 33.869687 10.292969 34.1925 10.518125 34.5 10.953125 C 34.8075 11.358125 35.001953 12.018828 35.001953 12.798828 C 35.001953 14.433828 34.222188 15.207031 33.367188 15.207031 C 32.482187 15.207031 31.748047 14.216719 31.748047 12.761719 C 31.748047 11.306719 32.504688 10.292969 33.367188 10.292969 z M 18.322266 10.390625 L 18.884766 10.390625 L 18.884766 15.064453 L 18.060547 15.064453 L 18.060547 11.34375 L 17.257812 11.583984 L 17.054688 11.074219 L 18.322266 10.390625 z M 22.072266 10.390625 L 22.634766 10.390625 L 22.634766 15.064453 L 21.810547 15.064453 L 21.810547 11.34375 L 21.007812 11.583984 L 20.804688 11.074219 L 22.072266 10.390625 z M 14.625 11.021484 C 14.19 11.021484 13.800781 11.681563 13.800781 12.664062 C 13.800781 12.836562 13.822891 13.121172 13.837891 13.263672 L 15.203125 11.486328 C 15.083125 11.201328 14.8725 11.021484 14.625 11.021484 z M 25.875 11.021484 C 25.44 11.021484 25.050781 11.681563 25.050781 12.664062 C 25.050781 12.836562 25.072891 13.121172 25.087891 13.263672 L 26.453125 11.486328 C 26.333125 11.201328 26.1225 11.021484 25.875 11.021484 z M 29.625 11.021484 C 29.19 11.021484 28.800781 11.681563 28.800781 12.664062 C 28.800781 12.836562 28.822891 13.121172 28.837891 13.263672 L 30.203125 11.486328 C 30.083125 11.201328 29.8725 11.021484 29.625 11.021484 z M 33.375 11.021484 C 32.94 11.021484 32.550781 11.681563 32.550781 12.664062 C 32.550781 12.836562 32.572891 13.121172 32.587891 13.263672 L 33.953125 11.486328 C 33.833125 11.201328 33.6225 11.021484 33.375 11.021484 z M 15.412109 12.212891 L 14.046875 13.992188 C 14.166875 14.277188 14.3775 14.457031 14.625 14.457031 C 15.06 14.457031 15.449219 13.796953 15.449219 12.814453 C 15.449219 12.641953 15.427109 12.355391 15.412109 12.212891 z M 26.662109 12.212891 L 25.296875 13.992188 C 25.416875 14.277188 25.6275 14.457031 25.875 14.457031 C 26.31 14.457031 26.699219 13.796953 26.699219 12.814453 C 26.699219 12.641953 26.677109 12.355391 26.662109 12.212891 z M 30.412109 12.212891 L 29.046875 13.992188 C 29.166875 14.277188 29.3775 14.457031 29.625 14.457031 C 30.06 14.457031 30.449219 13.796953 30.449219 12.814453 C 30.449219 12.641953 30.427109 12.355391 30.412109 12.212891 z M 34.162109 12.212891 L 32.796875 13.992188 C 32.916875 14.277188 33.1275 14.457031 33.375 14.457031 C 33.81 14.457031 34.199219 13.796953 34.199219 12.814453 C 34.199219 12.641953 34.177109 12.355391 34.162109 12.212891 z M 18.367188 17.792969 C 18.869687 17.792969 19.1925 18.018125 19.5 18.453125 C 19.8075 18.858125 20.001953 19.518828 20.001953 20.298828 C 20.001953 21.933828 19.222188 22.707031 18.367188 22.707031 C 17.482188 22.707031 16.748047 21.716719 16.748047 20.261719 C 16.748047 18.806719 17.504687 17.792969 18.367188 17.792969 z M 22.117188 17.792969 C 22.619687 17.792969 22.9425 18.018125 23.25 18.453125 C 23.5575 18.858125 23.751953 19.518828 23.751953 20.298828 C 23.751953 21.933828 22.972188 22.707031 22.117188 22.707031 C 21.232188 22.707031 20.498047 21.716719 20.498047 20.261719 C 20.498047 18.806719 21.254687 17.792969 22.117188 17.792969 z M 33.367188 17.792969 C 33.869687 17.792969 34.1925 18.018125 34.5 18.453125 C 34.8075 18.858125 35.001953 19.518828 35.001953 20.298828 C 35.001953 21.933828 34.222188 22.707031 33.367188 22.707031 C 32.482187 22.707031 31.748047 21.716719 31.748047 20.261719 C 31.748047 18.806719 32.504688 17.792969 33.367188 17.792969 z M 14.572266 17.890625 L 15.134766 17.890625 L 15.134766 22.564453 L 14.310547 22.564453 L 14.310547 18.84375 L 13.507812 19.083984 L 13.304688 18.574219 L 14.572266 17.890625 z M 25.822266 17.890625 L 26.384766 17.890625 L 26.384766 22.564453 L 25.560547 22.564453 L 25.560547 18.84375 L 24.757812 19.083984 L 24.554688 18.574219 L 25.822266 17.890625 z M 29.572266 17.890625 L 30.134766 17.890625 L 30.134766 22.564453 L 29.310547 22.564453 L 29.310547 18.84375 L 28.507812 19.083984 L 28.304688 18.574219 L 29.572266 17.890625 z M 18.375 18.521484 C 17.94 18.521484 17.550781 19.181562 17.550781 20.164062 C 17.550781 20.336562 17.572891 20.621172 17.587891 20.763672 L 18.953125 18.986328 C 18.833125 18.701328 18.6225 18.521484 18.375 18.521484 z M 22.125 18.521484 C 21.69 18.521484 21.300781 19.181562 21.300781 20.164062 C 21.300781 20.336562 21.322891 20.621172 21.337891 20.763672 L 22.703125 18.986328 C 22.583125 18.701328 22.3725 18.521484 22.125 18.521484 z M 33.375 18.521484 C 32.94 18.521484 32.550781 19.181562 32.550781 20.164062 C 32.550781 20.336562 32.572891 20.621172 32.587891 20.763672 L 33.953125 18.986328 C 33.833125 18.701328 33.6225 18.521484 33.375 18.521484 z M 19.162109 19.712891 L 17.796875 21.492188 C 17.916875 21.777188 18.1275 21.957031 18.375 21.957031 C 18.81 21.957031 19.199219 21.296953 19.199219 20.314453 C 19.199219 20.141953 19.177109 19.855391 19.162109 19.712891 z M 22.912109 19.712891 L 21.546875 21.492188 C 21.666875 21.777188 21.8775 21.957031 22.125 21.957031 C 22.56 21.957031 22.949219 21.296953 22.949219 20.314453 C 22.949219 20.141953 22.927109 19.855391 22.912109 19.712891 z M 34.162109 19.712891 L 32.796875 21.492188 C 32.916875 21.777188 33.1275 21.957031 33.375 21.957031 C 33.81 21.957031 34.199219 21.296953 34.199219 20.314453 C 34.199219 20.141953 34.177109 19.855391 34.162109 19.712891 z M 18.367188 25.292969 C 18.869687 25.292969 19.1925 25.518125 19.5 25.953125 C 19.8075 26.358125 20.001953 27.018828 20.001953 27.798828 C 20.001953 29.433828 19.222188 30.207031 18.367188 30.207031 C 17.482188 30.207031 16.748047 29.216719 16.748047 27.761719 C 16.748047 26.306719 17.504687 25.292969 18.367188 25.292969 z M 22.117188 25.292969 C 22.619687 25.292969 22.9425 25.518125 23.25 25.953125 C 23.5575 26.358125 23.751953 27.018828 23.751953 27.798828 C 23.751953 29.433828 22.972188 30.207031 22.117188 30.207031 C 21.232188 30.207031 20.498047 29.216719 20.498047 27.761719 C 20.498047 26.306719 21.254687 25.292969 22.117188 25.292969 z M 29.617188 25.292969 C 30.119688 25.292969 30.4425 25.518125 30.75 25.953125 C 31.0575 26.358125 31.251953 27.018828 31.251953 27.798828 C 31.251953 29.433828 30.472188 30.207031 29.617188 30.207031 C 28.732188 30.207031 27.998047 29.216719 27.998047 27.761719 C 27.998047 26.306719 28.754687 25.292969 29.617188 25.292969 z M 14.572266 25.390625 L 15.134766 25.390625 L 15.134766 30.064453 L 14.310547 30.064453 L 14.310547 26.34375 L 13.507812 26.583984 L 13.304688 26.074219 L 14.572266 25.390625 z M 25.822266 25.390625 L 26.384766 25.390625 L 26.384766 30.064453 L 25.560547 30.064453 L 25.560547 26.34375 L 24.757812 26.583984 L 24.554688 26.074219 L 25.822266 25.390625 z M 33.322266 25.390625 L 33.884766 25.390625 L 33.884766 30.064453 L 33.060547 30.064453 L 33.060547 26.34375 L 32.257812 26.583984 L 32.054688 26.074219 L 33.322266 25.390625 z M 18.375 26.021484 C 17.94 26.021484 17.550781 26.681562 17.550781 27.664062 C 17.550781 27.836562 17.572891 28.121172 17.587891 28.263672 L 18.953125 26.486328 C 18.833125 26.201328 18.6225 26.021484 18.375 26.021484 z M 22.125 26.021484 C 21.69 26.021484 21.300781 26.681562 21.300781 27.664062 C 21.300781 27.836562 21.322891 28.121172 21.337891 28.263672 L 22.703125 26.486328 C 22.583125 26.201328 22.3725 26.021484 22.125 26.021484 z M 29.625 26.021484 C 29.19 26.021484 28.800781 26.681562 28.800781 27.664062 C 28.800781 27.836562 28.822891 28.121172 28.837891 28.263672 L 30.203125 26.486328 C 30.083125 26.201328 29.8725 26.021484 29.625 26.021484 z M 19.162109 27.212891 L 17.796875 28.992188 C 17.916875 29.277188 18.1275 29.457031 18.375 29.457031 C 18.81 29.457031 19.199219 28.796953 19.199219 27.814453 C 19.199219 27.641953 19.177109 27.355391 19.162109 27.212891 z M 22.912109 27.212891 L 21.546875 28.992188 C 21.666875 29.277188 21.8775 29.457031 22.125 29.457031 C 22.56 29.457031 22.949219 28.796953 22.949219 27.814453 C 22.949219 27.641953 22.927109 27.355391 22.912109 27.212891 z M 30.412109 27.212891 L 29.046875 28.992188 C 29.166875 29.277188 29.3775 29.457031 29.625 29.457031 C 30.06 29.457031 30.449219 28.796953 30.449219 27.814453 C 30.449219 27.641953 30.427109 27.355391 30.412109 27.212891 z M 18.367188 32.792969 C 18.869687 32.792969 19.1925 33.018125 19.5 33.453125 C 19.8075 33.858125 20.001953 34.518828 20.001953 35.298828 C 20.001953 36.933828 19.222188 37.707031 18.367188 37.707031 C 17.482188 37.707031 16.748047 36.716719 16.748047 35.261719 C 16.748047 33.806719 17.504687 32.792969 18.367188 32.792969 z M 33.367188 32.792969 C 33.869687 32.792969 34.1925 33.018125 34.5 33.453125 C 34.8075 33.858125 35.001953 34.518828 35.001953 35.298828 C 35.001953 36.933828 34.222188 37.707031 33.367188 37.707031 C 32.482187 37.707031 31.748047 36.716719 31.748047 35.261719 C 31.748047 33.806719 32.504688 32.792969 33.367188 32.792969 z M 14.572266 32.890625 L 15.134766 32.890625 L 15.134766 37.564453 L 14.310547 37.564453 L 14.310547 33.84375 L 13.507812 34.083984 L 13.304688 33.574219 L 14.572266 32.890625 z M 22.072266 32.890625 L 22.634766 32.890625 L 22.634766 37.564453 L 21.810547 37.564453 L 21.810547 33.84375 L 21.007812 34.083984 L 20.804688 33.574219 L 22.072266 32.890625 z M 25.822266 32.890625 L 26.384766 32.890625 L 26.384766 37.564453 L 25.560547 37.564453 L 25.560547 33.84375 L 24.757812 34.083984 L 24.554688 33.574219 L 25.822266 32.890625 z M 29.572266 32.890625 L 30.134766 32.890625 L 30.134766 37.564453 L 29.310547 37.564453 L 29.310547 33.84375 L 28.507812 34.083984 L 28.304688 33.574219 L 29.572266 32.890625 z M 18.375 33.521484 C 17.94 33.521484 17.550781 34.181562 17.550781 35.164062 C 17.550781 35.336562 17.572891 35.621172 17.587891 35.763672 L 18.953125 33.986328 C 18.833125 33.701328 18.6225 33.521484 18.375 33.521484 z M 33.375 33.521484 C 32.94 33.521484 32.550781 34.181562 32.550781 35.164062 C 32.550781 35.336562 32.572891 35.621172 32.587891 35.763672 L 33.953125 33.986328 C 33.833125 33.701328 33.6225 33.521484 33.375 33.521484 z M 19.162109 34.712891 L 17.796875 36.492188 C 17.916875 36.777188 18.1275 36.957031 18.375 36.957031 C 18.81 36.957031 19.199219 36.296953 19.199219 35.314453 C 19.199219 35.141953 19.177109 34.855391 19.162109 34.712891 z M 34.162109 34.712891 L 32.796875 36.492188 C 32.916875 36.777188 33.1275 36.957031 33.375 36.957031 C 33.81 36.957031 34.199219 36.296953 34.199219 35.314453 C 34.199219 35.141953 34.177109 34.855391 34.162109 34.712891 z "
     id="path4532" />
  <g
     id="layer2"
     style="display:none"
     transform="translate(48.1581,-1.9067797)">
    <rect
       width="86"
       height="85"
       rx="6"
       ry="6"
       x="5"
       y="7"
       id="rect3745"
       style="opacity:0.9;fill:url(#ButtonShadow);fill-opacity:1;fill-rule:nonzero;stroke:none;filter:url(#filter3174)" />
  </g>
</svg>

<svg xmlns="http://www.w3.org/2000/svg" fill="#795548" viewBox="0 0 48 48"><path d="m10 6c-2.21 0-4 1.79-4 4v28c0 2.21 1.79 4 4 4h28c2.21 0 4-1.79 4-4v-28c0-2.21-1.79-4-4-4h-28m4.617 4.293c.502 0 .825.225 1.133.66.308.405.502 1.066.502 1.846 0 1.635-.78 2.408-1.635 2.408-.885 0-1.619-.99-1.619-2.445 0-1.455.757-2.469 1.619-2.469m11.25 0c.503 0 .825.225 1.133.66.308.405.502 1.066.502 1.846 0 1.635-.78 2.408-1.635 2.408-.885 0-1.619-.99-1.619-2.445 0-1.455.757-2.469 1.619-2.469m3.75 0c.503 0 .825.225 1.133.66.308.405.502 1.066.502 1.846 0 1.635-.78 2.408-1.635 2.408-.885 0-1.619-.99-1.619-2.445 0-1.455.757-2.469 1.619-2.469m3.75 0c.502 0 .825.225 1.133.66.307.405.502 1.066.502 1.846 0 1.635-.78 2.408-1.635 2.408-.885 0-1.619-.99-1.619-2.445 0-1.455.757-2.469 1.619-2.469m-15.04.098h.563v4.674h-.824v-3.721l-.803.24-.203-.51 1.268-.684m3.75 0h.563v4.674h-.824v-3.721l-.803.24-.203-.51 1.268-.684m-7.447.631c-.435 0-.824.66-.824 1.643 0 .173.022.457.037.6l1.365-1.777c-.12-.285-.331-.465-.578-.465m11.25 0c-.435 0-.824.66-.824 1.643 0 .173.022.457.037.6l1.365-1.777c-.12-.285-.331-.465-.578-.465m3.75 0c-.435 0-.824.66-.824 1.643 0 .173.022.457.037.6l1.365-1.777c-.12-.285-.331-.465-.578-.465m3.75 0c-.435 0-.824.66-.824 1.643 0 .173.022.457.037.6l1.365-1.777c-.12-.285-.331-.465-.578-.465m-17.963 1.191l-1.365 1.779c.12.285.331.465.578.465.435 0 .824-.66.824-1.643 0-.172-.022-.459-.037-.602m11.25 0l-1.365 1.779c.12.285.331.465.578.465.435 0 .824-.66.824-1.643 0-.172-.022-.459-.037-.602m3.75 0l-1.365 1.779c.12.285.331.465.578.465.435 0 .824-.66.824-1.643 0-.172-.022-.459-.037-.602m3.75 0l-1.365 1.779c.12.285.331.465.578.465.435 0 .824-.66.824-1.643 0-.172-.022-.459-.037-.602m-15.795 5.58c.502 0 .825.225 1.133.66.308.405.502 1.066.502 1.846 0 1.635-.78 2.408-1.635 2.408-.885 0-1.619-.99-1.619-2.445 0-1.455.757-2.469 1.619-2.469m3.75 0c.502 0 .825.225 1.133.66.308.405.502 1.066.502 1.846 0 1.635-.78 2.408-1.635 2.408-.885 0-1.619-.99-1.619-2.445 0-1.455.757-2.469 1.619-2.469m11.25 0c.502 0 .825.225 1.133.66.307.405.502 1.066.502 1.846 0 1.635-.78 2.408-1.635 2.408-.885 0-1.619-.99-1.619-2.445 0-1.455.757-2.469 1.619-2.469m-18.795.098h.563v4.674h-.824v-3.721l-.803.24-.203-.51 1.268-.684m11.25 0h.563v4.674h-.824v-3.721l-.803.24-.203-.51 1.268-.684m3.75 0h.563v4.674h-.824v-3.721l-.803.24-.203-.51 1.268-.684m-11.197.631c-.435 0-.824.66-.824 1.643 0 .172.022.457.037.6l1.365-1.777c-.12-.285-.331-.465-.578-.465m3.75 0c-.435 0-.824.66-.824 1.643 0 .172.022.457.037.6l1.365-1.777c-.12-.285-.331-.465-.578-.465m11.25 0c-.435 0-.824.66-.824 1.643 0 .172.022.457.037.6l1.365-1.777c-.12-.285-.331-.465-.578-.465m-14.213 1.191l-1.365 1.779c.12.285.331.465.578.465.435 0 .824-.66.824-1.643 0-.172-.022-.459-.037-.602m3.75 0l-1.365 1.779c.12.285.331.465.578.465.435 0 .824-.66.824-1.643 0-.172-.022-.459-.037-.602m11.25 0l-1.365 1.779c.12.285.331.465.578.465.435 0 .824-.66.824-1.643 0-.172-.022-.459-.037-.602m-15.795 5.58c.502 0 .825.225 1.133.66.308.405.502 1.066.502 1.846 0 1.635-.78 2.408-1.635 2.408-.885 0-1.619-.99-1.619-2.445 0-1.455.757-2.469 1.619-2.469m3.75 0c.502 0 .825.225 1.133.66.308.405.502 1.066.502 1.846 0 1.635-.78 2.408-1.635 2.408-.885 0-1.619-.99-1.619-2.445 0-1.455.757-2.469 1.619-2.469m7.5 0c.503 0 .825.225 1.133.66.308.405.502 1.066.502 1.846 0 1.635-.78 2.408-1.635 2.408-.885 0-1.619-.99-1.619-2.445 0-1.455.757-2.469 1.619-2.469m-15.04.098h.563v4.674h-.824v-3.721l-.803.24-.203-.51 1.268-.684m11.25 0h.563v4.674h-.824v-3.721l-.803.24-.203-.51 1.268-.684m7.5 0h.563v4.674h-.824v-3.721l-.803.24-.203-.51 1.268-.684m-14.947.631c-.435 0-.824.66-.824 1.643 0 .172.022.457.037.6l1.365-1.777c-.12-.285-.331-.465-.578-.465m3.75 0c-.435 0-.824.66-.824 1.643 0 .172.022.457.037.6l1.365-1.777c-.12-.285-.331-.465-.578-.465m7.5 0c-.435 0-.824.66-.824 1.643 0 .172.022.457.037.6l1.365-1.777c-.12-.285-.331-.465-.578-.465m-10.463 1.191l-1.365 1.779c.12.285.331.465.578.465.435 0 .824-.66.824-1.643 0-.172-.022-.459-.037-.602m3.75 0l-1.365 1.779c.12.285.331.465.578.465.435 0 .824-.66.824-1.643 0-.172-.022-.459-.037-.602m7.5 0l-1.365 1.779c.12.285.331.465.578.465.435 0 .824-.66.824-1.643 0-.172-.022-.459-.037-.602m-12.04 5.58c.502 0 .825.225 1.133.66.308.405.502 1.066.502 1.846 0 1.635-.78 2.408-1.635 2.408-.885 0-1.619-.99-1.619-2.445 0-1.455.757-2.469 1.619-2.469m15 0c.502 0 .825.225 1.133.66.307.405.502 1.066.502 1.846 0 1.635-.78 2.408-1.635 2.408-.885 0-1.619-.99-1.619-2.445 0-1.455.757-2.469 1.619-2.469m-18.795.098h.563v4.674h-.824v-3.721l-.803.24-.203-.51 1.268-.684m7.5 0h.563v4.674h-.824v-3.721l-.803.24-.203-.51 1.268-.684m3.75 0h.563v4.674h-.824v-3.721l-.803.24-.203-.51 1.268-.684m3.75 0h.563v4.674h-.824v-3.721l-.803.24-.203-.51 1.268-.684m-11.197.631c-.435 0-.824.66-.824 1.643 0 .172.022.457.037.6l1.365-1.777c-.12-.285-.331-.465-.578-.465m15 0c-.435 0-.824.66-.824 1.643 0 .172.022.457.037.6l1.365-1.777c-.12-.285-.331-.465-.578-.465m-14.213 1.191l-1.365 1.779c.12.285.331.465.578.465.435 0 .824-.66.824-1.643 0-.172-.022-.459-.037-.602m15 0l-1.365 1.779c.12.285.331.465.578.465.435 0 .824-.66.824-1.643 0-.172-.022-.459-.037-.602"/></svg>
